X: 41081
T: Trip To Pakistan, The
R: reel
M: 4/4
K: Bminor
|:BdfB d3 f|e2ed cdec|BdfB d3 f|edcd B2BA:|
|:BdfB g3 e|~f3 a fefd|BdfB g3 e|fedf ~e3d:|
|:cdfc dfcd|BcdB cdcB|AceA ceAc|edcd ~B3A:|

